images/glm.svg

<svg height="250" viewBox="0 0 250 250" width="250" xmlns="http://www.w3.org/2000/svg"><path d="m250 125c0 69.035156-55.964844 125-125 125s-125-55.964844-125-125 55.964844-125 125-125 125 55.964844 125 125zm0 0" fill="#002d64"/><path d="m148.351562 106.25c6.171876-6.175781 9.523438-14.300781 9.523438-23.050781 0-7.636719-2.679688-15.035157-7.574219-20.898438l18.949219-18.949219-4.226562-4.101562-18.949219 18.949219c-5.847657-4.875-13.097657-7.574219-20.773438-7.574219-13.175781.007812-25.050781 7.949219-30.09375 20.117188-5.042969 12.171874-2.265625 26.183593 7.042969 35.507812 5.398438 5.398438 12.449219 8.773438 20.023438 9.425781v24.023438c-7.589844.628906-14.699219 3.976562-20.023438 9.425781-12.699219 12.742188-12.699219 33.355469 0 46.101562 6.175781 6.171876 14.300781 9.523438 23.050781 9.523438 8.644531.027344 16.945313-3.402344 23.050781-9.523438 6.171876-6.175781 9.523438-14.300781 9.523438-23.050781s-3.351562-16.875-9.523438-23.050781c-5.402343-5.398438-12.453124-8.773438-20.027343-9.425781v-24.023438c7.59375-.625 14.707031-3.972656 20.027343-9.425781m-4.226562 47.074219c4.976562 5.074219 7.800781 11.699219 7.800781 18.824219.011719 7.066406-2.796875 13.839843-7.800781 18.828124-4.976562 5.074219-11.699219 7.796876-18.824219 7.796876-7.0625.011718-13.839843-2.792969-18.824219-7.796876-4.976562-5.078124-7.800781-11.703124-7.800781-18.828124-.011719-7.0625 2.796875-13.839844 7.800781-18.824219 4.972657-5.074219 11.699219-7.800781 18.824219-7.800781 7.148438.027343 13.847657 2.726562 18.824219 7.800781m-18.824219-43.398438c-7.0625.011719-13.839843-2.796875-18.824219-7.800781-4.976562-5.074219-7.800781-11.699219-7.800781-18.824219-.007812-7.0625 2.800781-13.835937 7.800781-18.824219 4.972657-5.078124 11.699219-7.800781 18.824219-7.800781 7.0625-.011719 13.839844 2.796875 18.824219 7.800781 5.074219 4.972657 7.800781 11.699219 7.800781 18.824219.011719 7.0625-2.796875 13.839844-7.800781 18.824219-4.976562 5.101562-11.675781 7.800781-18.824219 7.800781" fill="#fff"/></svg>

<svg xmlns="http://www.w3.org/2000/svg" xmlns:xlink="http://www.w3.org/1999/xlink" width="250px" height="250px" viewBox="0 0 250 250" version="1.1">
<g id="surface1">
<path style=" stroke:none;fill-rule:nonzero;fill:rgb(0%,17.647059%,39.215687%);fill-opacity:1;" d="M 250 125 C 250 194.035156 194.035156 250 125 250 C 55.964844 250 0 194.035156 0 125 C 0 55.964844 55.964844 0 125 0 C 194.035156 0 250 55.964844 250 125 Z M 250 125 "/>
<path style=" stroke:none;fill-rule:nonzero;fill:rgb(100%,100%,100%);fill-opacity:1;" d="M 148.351562 106.25 C 154.523438 100.074219 157.875 91.949219 157.875 83.199219 C 157.875 75.5625 155.195312 68.164062 150.300781 62.300781 L 169.25 43.351562 L 165.023438 39.25 L 146.074219 58.199219 C 140.226562 53.324219 132.976562 50.625 125.300781 50.625 C 112.125 50.632812 100.25 58.574219 95.207031 70.742188 C 90.164062 82.914062 92.941406 96.925781 102.25 106.25 C 107.648438 111.648438 114.699219 115.023438 122.273438 115.675781 L 122.273438 139.699219 C 114.683594 140.328125 107.574219 143.675781 102.25 149.125 C 89.550781 161.867188 89.550781 182.480469 102.25 195.226562 C 108.425781 201.398438 116.550781 204.75 125.300781 204.75 C 133.945312 204.777344 142.246094 201.347656 148.351562 195.226562 C 154.523438 189.050781 157.875 180.925781 157.875 172.175781 C 157.875 163.425781 154.523438 155.300781 148.351562 149.125 C 142.949219 143.726562 135.898438 140.351562 128.324219 139.699219 L 128.324219 115.675781 C 135.917969 115.050781 143.03125 111.703125 148.351562 106.25 M 144.125 153.324219 C 149.101562 158.398438 151.925781 165.023438 151.925781 172.148438 C 151.9375 179.214844 149.128906 185.988281 144.125 190.976562 C 139.148438 196.050781 132.425781 198.773438 125.300781 198.773438 C 118.238281 198.785156 111.460938 195.980469 106.476562 190.976562 C 101.5 185.898438 98.675781 179.273438 98.675781 172.148438 C 98.664062 165.085938 101.472656 158.308594 106.476562 153.324219 C 111.449219 148.25 118.175781 145.523438 125.300781 145.523438 C 132.449219 145.550781 139.148438 148.25 144.125 153.324219 M 125.300781 109.925781 C 118.238281 109.9375 111.460938 107.128906 106.476562 102.125 C 101.5 97.050781 98.675781 90.425781 98.675781 83.300781 C 98.667969 76.238281 101.476562 69.464844 106.476562 64.476562 C 111.449219 59.398438 118.175781 56.675781 125.300781 56.675781 C 132.363281 56.664062 139.140625 59.472656 144.125 64.476562 C 149.199219 69.449219 151.925781 76.175781 151.925781 83.300781 C 151.9375 90.363281 149.128906 97.140625 144.125 102.125 C 139.148438 107.226562 132.449219 109.925781 125.300781 109.925781 "/>
</g>
</svg>
